public/images/images/8.svg

<svg enable-background="new 0 0 100 100" viewBox="0 0 100 100" xmlns="http://www.w3.org/2000/svg"><path d="m89.4 57 10.6-7-10.6-7.1 7.6-10.3-12.4-2.9 3.7-12.3-12.6 1.5-.7-12.9-11.3 5.8-5-11.8-8.7 9.4-8.7-9.4-5 11.8-11.3-5.8-.7 12.9-12.6-1.5 3.7 12.3-12.4 2.9 7.6 10.3-10.6 7.1 10.6 7-7.6 10.4 12.4 2.9-3.7 12.3 12.6-1.5.7 12.9 11.3-5.8 5 11.8 8.7-9.4 8.7 9.4 5-11.8 11.3 5.8.7-12.9 12.6 1.5-3.7-12.3 12.4-2.9zm-39.4 27.5c-9 0-17.7-3.6-24.1-10.1-6.3-6.5-9.9-15.2-9.9-24.4s3.6-17.9 10-24.4 15-10.1 24.1-10.1c4.5 0 8.9.9 13 2.6s7.9 4.3 11 7.5c3.2 3.2 5.7 7 7.4 11.2 1.6 4.2 2.5 8.7 2.5 13.2s-.9 9-2.6 13.2-4.2 8-7.4 11.2-6.9 5.7-11 7.5c-4.1 1.7-8.5 2.6-13 2.6z"/></svg>

<svg version="1.1" id="Ebene_1" xmlns="http://www.w3.org/2000/svg" xmlns:xlink="http://www.w3.org/1999/xlink" x="0px" y="0px" viewBox="0 0 100 100" style="enable-background:new 0 0 100 100;" xml:space="preserve">
<g>
	<path d="M89.4,57l10.6-7l-10.6-7.1L97,32.6l-12.4-2.9l3.7-12.3l-12.6,1.5L75,6l-11.3,5.8L58.7,0L50,9.4L41.3,0l-5,11.8
		L25,6l-0.7,12.9l-12.6-1.5l3.7,12.3L3,32.6l7.6,10.3L0,50l10.6,7L3,67.4l12.4,2.9l-3.7,12.3l12.6-1.5L25,94l11.3-5.8l5,11.8
		l8.7-9.4l8.7,9.4l5-11.8L75,94l0.7-12.9l12.6,1.5l-3.7-12.3L97,67.4L89.4,57z M50,84.5c-9,0-17.7-3.6-24.1-10.1
		C19.6,67.9,16,59.2,16,50s3.6-17.9,10-24.4c6.4-6.5,15-10.1,24.1-10.1c4.5,0,8.9,0.9,13,2.6c4.1,1.7,7.9,4.3,11,7.5
		c3.2,3.2,5.7,7,7.4,11.2C83.1,41,84,45.5,84,50c0,4.5-0.9,9-2.6,13.2c-1.7,4.2-4.2,8-7.4,11.2c-3.2,3.2-6.9,5.7-11,7.5
		C58.9,83.6,54.5,84.5,50,84.5L50,84.5z"/>
</g>
</svg>
